X:234
T:Reel
O:No 234 Wm Clarke of Feltwell
N:
M:C
L:1/8
K:G
D| GBdg edcB| gbag aAAB| GBdg edcB| cAdc dG G2:|| !
gfga{ga}b2 ag| fd'ad' b2 (3dad|gdga (3gab ag|dgfa g2 d2| gdga (3gab ag| agab c' ba| gedc Bdge| dcBA G2G2||

